X: 21199
T: Katie's
R: reel
M: 4/4
K: Dminor
DEDC A,2A,=B,|C3D E2FG|Ad (3ddd AGFG|Addc d3e|
f2fe dfed|eaag a3g|f2fe dcAG|1 F2EF D2DC:|2 F2EF D2DB||
Ad (3ddd fedf|eaag a3g|f2fe dcAG|F2FD E2(3FGA|
Ad (3ddd fedf|eaag a3g|f2fe dcAG|D2EF D2DB||
Ad (3ddd fedf|eaag a3g|f2fe dcAG|F2FD E2(3FGA|
Ad (3ddd fedf|eaag a3b|a3g f3e|Addc d2AF||

